.local/share/icons/Gruvbox-Plus-Dark/panel/22/weather-few-clouds-night.svg

<svg xmlns="http://www.w3.org/2000/svg" width="22" height="22" version="1.1">
 <defs>
  <style id="current-color-scheme" type="text/css">
   .ColorScheme-Text { color:#ebdbb2; } .ColorScheme-Highlight { color:#458588; }
  </style>
 </defs>
 <g transform="translate(-177,-681.28999)">
  <path style="fill:currentColor" class="ColorScheme-Text" d="M 10.751953 4.0371094 C 7.9891731 4.1385494 5.4432531 5.8416894 4.4394531 8.5996094 C 3.1756231 12.071949 4.8081231 15.924179 8.1269531 17.412109 C 8.0337531 17.074649 7.9800731 16.705189 8.0019531 16.349609 C 8.0296531 15.348359 8.5859231 14.462239 9.3769531 13.880859 C 7.8100731 12.147669 7.2413631 9.6343994 8.0957031 7.2871094 C 8.6098631 5.8744594 9.5701431 4.7787494 10.751953 4.0371094 z M 14.001953 12.005859 C 12.690273 12.005859 11.597133 12.864289 11.189453 14.037109 C 9.9586231 14.193079 9.0019531 15.232679 9.0019531 16.505859 C 9.0019531 17.886569 10.121243 19.005859 11.501953 19.005859 L 17.001953 19.005859 C 18.106523 19.005859 19.001953 18.110429 19.001953 17.005859 C 19.001953 15.901289 18.106523 15.005859 17.001953 15.005859 C 17.001953 13.349009 15.658803 12.005859 14.001953 12.005859 z" transform="translate(177,681.28999)"/>
 </g>
</svg>

<svg width="22" height="22" version="1.1" xmlns="http://www.w3.org/2000/svg">
  <defs>
    <style id="current-color-scheme" type="text/css">.ColorScheme-Text { color:#ebdbb2; } .ColorScheme-Highlight { color:#458588; } .ColorScheme-NeutralText { color:#fe8019; } .ColorScheme-PositiveText { color:#689d6a; } .ColorScheme-NegativeText { color:#fb4934; }</style>
  </defs>
  <path class="ColorScheme-Text" d="m10.75 4.037c-2.763 0.1014-5.309 1.805-6.312 4.562-1.264 3.472 0.3687 7.325 3.688 8.812-0.0932-0.3375-0.1469-0.7069-0.125-1.062 0.0277-1.001 0.584-1.887 1.375-2.469-1.567-1.733-2.136-4.246-1.281-6.594 0.5142-1.413 1.474-2.508 2.656-3.25zm3.25 7.969c-1.312 0-2.405 0.8584-2.812 2.031-1.231 0.156-2.187 1.196-2.187 2.469 0 1.381 1.119 2.5 2.5 2.5h5.5c1.105 0 2-0.8954 2-2s-0.8954-2-2-2c0-1.657-1.343-3-3-3z" fill="currentColor"/>
</svg>
